X:1
T:Title
%%score { ( 1 4 ) | ( 2 3 ) }
L:1/8
M:6/8
K:Eb
V:1 treble nm="Grand Piano"
V:4 treble 
V:2 bass 
V:3 bass 
V:1
 z3 z2[Q:1/4=81] E/F/ | GGG [DF]2 E | [CE]3 [=B,D]2 [B,D] | [CE]2 [CE] [DA]2 [DA] | %4
[M:5/8] G-G- G3 |[M:1/8] A |[M:3/4] B2 e d2 =B | [Fd]3 [Ec]3 | c2 FF G=A | %9
[M:5/8] [DB]-[DB]- [DB]3 |[M:1/8] [AB] |[M:3/4] [GB][GB] [GB][GB] [_G=A][=GB] | %12
 [EAc]3 [EAc]2 [EAc] | [E=Ac][EAc] [EAc][CAc] [Bd][ce] | d6 | [Ge][Bd] [Ac][EGB] [FA][B,EG] | %16
 [CF]2 [CFA] [Fc]3 | [Fc]2 [CEF] [DA]2 D |[M:5/8] E-E- E3 |] %19
V:2
 z3 z2 [E,G,]/[E,A,E]/ | [E,B,E][E,B,E][E,B,E] [B,,A,]2 [C,G,] | [G,,G,]3 [G,,G,]2 [G,,G,] | %3
 [C,G,]2 [C,G,] [B,,B,]2 [B,,B,] |[M:5/8] [E,B,E]-[E,B,E]- [E,B,E]3 |[M:1/8] [F,B,E] | %6
[M:3/4][K:treble] [G,B,E]2 [G,B,G] [G,=B,G]2 [G,F] | [C,G,]3 [C,G,]3 | %8
 [F,=A,E]2 [F,A,E]A, [B,E][F,CE] |[M:5/8] [B,,B,]-[B,,B,]- [B,,B,]3 |[M:1/8] [B,D] | %11
[M:3/4] [E,E][E,E] [E,E][E,E] [E,E][E,E] | A,3 A,2 A, | F,F, .F,2 B,[F,=A,] | B4 z2 | %15
 [E,B,][E,E] .[E,E]2 B,E, | A,,2 A,, [A,,A,]3 | [=A,,F,]2 A,, [B,,F,]2 [B,,A,B,] | %18
[M:5/8] [E,G,B,]-[E,G,B,]- [E,G,B,]3 |] %19
V:3
 x6 | x6 | x6 | x6 |[M:5/8] x5 |[M:1/8] x |[M:3/4][K:treble] x6 | x6 | z2 z .F,3 |[M:5/8] x5 | %10
[M:1/8] x |[M:3/4] x6 | x6 | z2 z .F,3 | B,6 | z2 z .E,3 | x6 | x6 |[M:5/8] x5 |] %19
V:4
 x6 | x6 | x6 | x6 |[M:5/8] x5 |[M:1/8] x |[M:3/4] x6 | x6 | x6 |[M:5/8] x5 |[M:1/8] x | %11
[M:3/4] x6 | x6 | x6 | z2 z .A3 | x6 | x6 | x6 |[M:5/8] x5 |] %19

